X: 21155
T: Katherine Brennan's Favourite
R: hornpipe
M: 4/4
K: Gmajor
gedB G2 AB|(3cBA BG AGEG|DGBd g2 dB|(3efg ag fdef|
gedB G2 AB|(3cBA BG AGEG|c2 BG AGEG|DGGF G2 (3def:|
g2 ga (3bag af|gfed B2 AG|EAAB cBAG|EAAB cdef|
g2 ga (3bag af|gfed B2 Bd|(3cBA BG AGEG|DGGF G2:|

